assets/sonr-icons/face-sad.svg

<svg xmlns="http://www.w3.org/2000/svg" width="24" height="24" fill="none"><path fill="currentColor" d="M12 20a8 8 0 1 1 0-16 8 8 0 0 1 0 16m0 2c5.523 0 10-4.477 10-10S17.523 2 12 2 2 6.477 2 12s4.477 10 10 10"/><path fill="currentColor" d="M10 9.5a1.5 1.5 0 1 1-2.999.001A1.5 1.5 0 0 1 10 9.5m7 0a1.5 1.5 0 1 1-2.999.001A1.5 1.5 0 0 1 17 9.5m-9.6 7.3a1 1 0 0 0 1.397-.196l.005-.006.034-.041a4.98 4.98 0 0 1 .815-.749C10.228 15.388 11.026 15 12 15s1.772.389 2.349.808a5 5 0 0 1 .815.749l.034.041.005.006A1 1 0 0 0 16.8 15.4l-.104-.129s-.142-.164-.248-.275a7 7 0 0 0-.923-.804c-.798-.581-2-1.191-3.526-1.191s-2.728.611-3.526 1.191a7 7 0 0 0-1.171 1.079q-.053.062-.102.128a1.01 1.01 0 0 0 .2 1.401"/></svg>

<svg xmlns="http://www.w3.org/2000/svg" width="24" height="24" fill="none" viewBox="0 0 24 24"><path fill="#000" d="M12 20C7.582 20 4 16.418 4 12C4 7.582 7.582 4 12 4C16.418 4 20 7.582 20 12C20 16.418 16.418 20 12 20ZM12 22C17.523 22 22 17.523 22 12C22 6.477 17.523 2 12 2C6.477 2 2 6.477 2 12C2 17.523 6.477 22 12 22Z"/><path fill="#000" d="M10 9.5C10 10.329 9.329 11 8.5 11C7.671 11 7 10.329 7 9.5C7 8.671 7.671 8 8.5 8C9.329 8 10 8.671 10 9.5ZM17 9.5C17 10.329 16.329 11 15.5 11C14.671 11 14 10.329 14 9.5C14 8.671 14.671 8 15.5 8C16.329 8 17 8.671 17 9.5ZM7.4 16.8C7.84 17.131 8.465 17.042 8.797 16.604L8.802 16.598C8.808 16.59 8.819 16.576 8.836 16.557C8.869 16.517 8.923 16.456 8.996 16.379C9.143 16.225 9.365 16.017 9.651 15.808C10.228 15.388 11.026 15 12 15C12.974 15 13.772 15.389 14.349 15.808C14.636 16.017 14.857 16.225 15.004 16.379C15.077 16.455 15.131 16.517 15.164 16.557C15.18 16.576 15.192 16.591 15.198 16.598L15.203 16.604C15.535 17.042 16.159 17.13 16.6 16.8C17.041 16.47 17.131 15.842 16.8 15.4L16.696 15.271C16.696 15.271 16.554 15.107 16.448 14.996C16.236 14.775 15.926 14.483 15.525 14.192C14.727 13.611 13.525 13.001 11.999 13.001C10.473 13.001 9.271 13.612 8.473 14.192C8.072 14.484 7.762 14.775 7.55 14.996C7.444 15.107 7.36 15.202 7.302 15.271C7.267 15.313 7.232 15.355 7.2 15.399C6.872 15.836 6.963 16.473 7.4 16.8Z"/></svg>
